www/assets/icons/airline_seat_legroom_extra.svg

<svg width="24" height="24" viewBox="0 0 24 24" xmlns="http://www.w3.org/2000/svg" fill='currentColor'><path d="M3.49951 12V3H1.49951V12C1.49951 14.76 3.73951 17 6.49951 17H12.4995V15H6.49951C4.83951 15 3.49951 13.66 3.49951 12ZM22.3295 17.24C21.9495 16.52 21.0395 16.27 20.2995 16.61L19.2095 17.11L15.7995 10.13C15.4595 9.45 14.7695 9.01 14.0095 9.01L10.4995 9V3H4.49951V11C4.49951 12.66 5.83951 14 7.49951 14H14.4995L17.9095 21L21.6295 19.3C22.3995 18.94 22.7295 18 22.3295 17.24Z"/></svg>

<svg xmlns="http://www.w3.org/2000/svg" width="24" height="24" viewBox="0 0 24 24" fill='currentColor'><path d="M3.5 12V3h-2v9c0 2.76 2.24 5 5 5h6v-2h-6c-1.66 0-3-1.34-3-3m18.83 5.24c-.38-.72-1.29-.97-2.03-.63l-1.09.5-3.41-6.98a2.01 2.01 0 0 0-1.79-1.12L10.5 9V3h-6v8c0 1.66 1.34 3 3 3h7l3.41 7 3.72-1.7c.77-.36 1.1-1.3.7-2.06"/></svg>
